X:2151 
T:Vad traue yn keadyn 
C:Charles Clague 
C:Traditional
O:Isle of Man
Z:Clague collection
B:Kiaull Vannin #151 
M:4/4 
L:1/8 
Q:120 
K:G 
D|B3B BA Bc|d4 d2 G2|d3d dc A2|G6 D2|B3B BA Bc|d4 d2 G2|d3d dc A2|G6 Bc| 
d2 d2 d2 gf|e4 c2 B2|AB c2 e2 d2|G4 F2 D2|B3B BA Bc|d4 d2 G2|d3d dc A2|G6|| 

